icons/evolvere-blue-folders-flat-vivid-dark-fallback/apps/64/distributor-logo-solydk.svg

<svg xmlns="http://www.w3.org/2000/svg" viewBox="0 0 64 64"><g color="#000"><path d="m1 38v23l2 2h23l-25-25" fill="#1e6dd0"/><path d="m0 4v30 5l25 25h7 30l2-2v-28-5l-25-25h-7-32" fill="#1d8ee8"/><path d="m2 0l-2 1v3h32 7v-4h-37" fill="#67cdff"/><path d="m39 1v3h24v-2l-2-1z" fill="#4497ff"/></g><path d="m0 3v3l2-2" fill="#96dcff"/><path d="m39 4l24 24v-24z" fill="#1e6dd0" color="#000"/><path d="m63 6l-2-2 2-1z" fill="#357ed9"/><text y="52" x="15.89" font-family="Playfair Display" letter-spacing="0" word-spacing="0" color="#000" fill="#dbeeff" line-height="125%" font-size="50.847"><tspan y="52" x="15.89">K</tspan></text></svg>

<?xml version="1.0" encoding="UTF-8" standalone="no"?>
<!-- Created with Inkscape (http://www.inkscape.org/) -->

<svg
   xmlns:dc="http://purl.org/dc/elements/1.1/"
   xmlns:cc="http://creativecommons.org/ns#"
   xmlns:rdf="http://www.w3.org/1999/02/22-rdf-syntax-ns#"
   xmlns:svg="http://www.w3.org/2000/svg"
   xmlns="http://www.w3.org/2000/svg"
   xmlns:sodipodi="http://sodipodi.sourceforge.net/DTD/sodipodi-0.dtd"
   xmlns:inkscape="http://www.inkscape.org/namespaces/inkscape"
   width="64"
   height="64"
   id="svg13094"
   version="1.1"
   inkscape:version="0.91+devel r"
   sodipodi:docname="distributor-logo-solydk.svg">
  <sodipodi:namedview
     id="base"
     pagecolor="#ffffff"
     bordercolor="#666666"
     borderopacity="1.0"
     inkscape:pageopacity="0"
     inkscape:pageshadow="2"
     inkscape:zoom="11.313709"
     inkscape:cx="28.009418"
     inkscape:cy="31.037671"
     inkscape:document-units="px"
     inkscape:current-layer="svg13094"
     showgrid="false"
     inkscape:snap-bbox="true"
     inkscape:bbox-paths="true"
     inkscape:bbox-nodes="true"
     inkscape:snap-bbox-edge-midpoints="true"
     inkscape:snap-bbox-midpoints="true"
     inkscape:object-paths="true"
     inkscape:snap-intersection-paths="true"
     inkscape:object-nodes="true"
     inkscape:snap-smooth-nodes="true"
     inkscape:snap-midpoints="true"
     inkscape:snap-object-midpoints="true"
     inkscape:snap-center="true"
     showguides="true"
     inkscape:guide-bbox="true"
     inkscape:window-width="1920"
     inkscape:window-height="1025"
     inkscape:window-x="-2"
     inkscape:window-y="32"
     inkscape:window-maximized="1"
     inkscape:snap-global="true"
     fit-margin-top="0"
     fit-margin-left="0"
     fit-margin-right="0"
     fit-margin-bottom="0"
     showborder="true"
     inkscape:showpageshadow="false"
     inkscape:snap-page="true">
    <inkscape:grid
       type="xygrid"
       id="grid3075"
       empspacing="5"
       visible="true"
       enabled="true"
       snapvisiblegridlinesonly="true"
       originx="1.6362304e-08px"
       originy="18px" />
  </sodipodi:namedview>
  <defs
     id="defs13096" />
  <metadata
     id="metadata13099">
    <rdf:RDF>
      <cc:Work
         rdf:about="">
        <dc:format>image/svg+xml</dc:format>
        <dc:type
           rdf:resource="http://purl.org/dc/dcmitype/StillImage" />
        <dc:title></dc:title>
      </cc:Work>
    </rdf:RDF>
  </metadata>
  <path
     style="color:#000000;fill:#1e6dd0;fill-opacity:1;fill-rule:nonzero;stroke:none;stroke-width:2.28571415;marker:none;visibility:visible;display:inline;overflow:visible;enable-background:accumulate"
     d="M 1,38 1,61 3,63 26,63 1,38 z"
     id="path3753"
     inkscape:connector-curvature="0" />
  <path
     style="color:#000000;fill:#1d8ee8;fill-opacity:1;fill-rule:nonzero;stroke:none;stroke-width:2.28571415;marker:none;visibility:visible;display:inline;overflow:visible;enable-background:accumulate"
     d="M 0 4 L 0 34 L 0 39 L 25 64 L 32 64 L 62 64 L 64 62 L 64 34 L 64 29 L 39 4 L 32 4 L 0 4 z "
     id="path4540" />
  <path
     style="color:#000000;fill:#67cdff;fill-opacity:1;fill-rule:nonzero;stroke:none;marker:none;visibility:visible;display:inline;overflow:visible;enable-background:accumulate"
     d="M 2 0 L 0 1 L 0 4 L 32 4 L 39 4 L 39 0 L 2 0 z "
     id="path4572" />
  <path
     style="color:#000000;fill:#4497ff;fill-opacity:1;fill-rule:nonzero;stroke:none;marker:none;visibility:visible;display:inline;overflow:visible;enable-background:accumulate"
     d="M 39,1 39,4 63,4 63,2 61,1 z"
     id="path6502"
     inkscape:connector-curvature="0"
     sodipodi:nodetypes="cccccc" />
  <g
     id="g3043"
     inkscape:export-filename="folder.png"
     inkscape:export-xdpi="90"
     inkscape:export-ydpi="90"
     transform="translate(-0.62500009,0.082283)" />
  <g
     id="scalable"
     transform="matrix(1.0385892,0,0,1.0385892,1214.7222,1878.8121)"
     inkscape:label="#g3701"
     style="fill:#ffffff" />
  <path
     style="fill:#96dcff;fill-opacity:1;fill-rule:nonzero"
     d="M 0,3 0,6 2,4 Z"
     id="path4298"
     inkscape:connector-curvature="0"
     sodipodi:nodetypes="cccc" />
  <path
     sodipodi:nodetypes="cccc"
     style="color:#000000;fill:#1e6dd0;fill-opacity:1;stroke:none;stroke-width:1.99999988;marker:none;visibility:visible;display:inline;overflow:visible;enable-background:accumulate"
     d="M 39,4 63,28 63,4 z"
     id="path4564"
     inkscape:connector-curvature="0" />
  <path
     d="M 63,6 61,4 63,3 z"
     id="path3028"
     style="fill:#357ed9;fill-opacity:1"
     inkscape:connector-curvature="0" />
  <text
     sodipodi:linespacing="125%"
     id="text4669"
     y="52.000004"
     x="15.889655"
     style="font-size:50.84690094px;font-style:normal;font-variant:normal;font-weight:normal;font-stretch:normal;line-height:125%;letter-spacing:0px;word-spacing:0px;color:#000000;fill:#dbeeff;fill-opacity:1;fill-rule:nonzero;stroke:none;stroke-width:2;marker:none;visibility:visible;display:inline;overflow:visible;enable-background:accumulate;font-family:Playfair Display;-inkscape-font-specification:Playfair Display;"
     xml:space="preserve"><tspan
       y="52.000004"
       x="15.889655"
       id="tspan4671"
       sodipodi:role="line">K</tspan></text>
</svg>
